build/images/symbol-defs-socials.svg

<svg aria-hidden="true" style="position: absolute; width: 0; height: 0; overflow: hidden;" version="1.1" xmlns="http://www.w3.org/2000/svg" xmlns:xlink="http://www.w3.org/1999/xlink">
<defs>
<symbol id="icon-linkedin" viewBox="0 0 28 32">
<path d="M6.268 28h-5.805v-18.694h5.805zM3.362 6.756c-1.856 0-3.362-1.537-3.362-3.394s1.505-3.362 3.362-3.362 3.362 1.505 3.362 3.362v0c0 1.856-1.506 3.394-3.362 3.394zM27.994 28h-5.793v-9.1c0-2.169-0.044-4.95-3.018-4.95-3.018 0-3.481 2.356-3.481 4.794v9.256h-5.799v-18.694h5.568v2.55h0.081c0.775-1.469 2.668-3.019 5.492-3.019 5.875 0 6.955 3.869 6.955 8.894v10.269z"></path>
</symbol>
<symbol id="icon-facebook" viewBox="0 0 20 32">
<path d="M17.446 18l0.889-5.791h-5.557v-3.758c0-1.584 0.776-3.129 3.265-3.129h2.526v-4.931s-2.293-0.391-4.484-0.391c-4.576 0-7.567 2.774-7.567 7.795v4.414h-5.087v5.791h5.087v14h6.261v-14z"></path>
</symbol>
<symbol id="icon-twitter" viewBox="0 0 32 32">
<path d="M28.711 9.482c0.020 0.284 0.020 0.569 0.020 0.853 0 8.67-6.599 18.66-18.66 18.66-3.716 0-7.168-1.076-10.071-2.944 0.528 0.061 1.036 0.081 1.584 0.081 3.066 0 5.888-1.035 8.142-2.802-2.883-0.061-5.3-1.949-6.132-4.548 0.406 0.061 0.812 0.102 1.239 0.102 0.589 0 1.178-0.081 1.726-0.223-3.005-0.609-5.259-3.249-5.259-6.437v-0.081c0.873 0.487 1.888 0.792 2.964 0.832-1.766-1.178-2.924-3.188-2.924-5.462 0-1.218 0.325-2.335 0.893-3.31 3.228 3.98 8.081 6.579 13.523 6.863-0.101-0.487-0.162-0.995-0.162-1.502 0-3.614 2.924-6.558 6.558-6.558 1.888 0 3.594 0.792 4.792 2.071 1.482-0.284 2.904-0.832 4.162-1.584-0.487 1.523-1.523 2.802-2.883 3.614 1.32-0.142 2.599-0.508 3.777-1.015-0.893 1.299-2.010 2.457-3.289 3.391z"></path>
</symbol>
</defs>
</svg>

<svg aria-hidden="true" style="position:absolute;width:0;height:0" xmlns="http://www.w3.org/2000/svg" overflow="hidden"><defs><symbol id="icon-linkedin" viewBox="0 0 28 32"><path d="M6.268 28H.463V9.306h5.805zM3.362 6.756C1.506 6.756 0 5.219 0 3.362a3.362 3.362 0 116.724 0c0 1.856-1.506 3.394-3.362 3.394zM27.994 28h-5.793v-9.1c0-2.169-.044-4.95-3.018-4.95-3.018 0-3.481 2.356-3.481 4.794V28H9.903V9.306h5.568v2.55h.081c.775-1.469 2.668-3.019 5.492-3.019 5.875 0 6.955 3.869 6.955 8.894V28z"/></symbol><symbol id="icon-facebook" viewBox="0 0 20 32"><path d="M17.446 18l.889-5.791h-5.557V8.451c0-1.584.776-3.129 3.265-3.129h2.526V.391S16.276 0 14.085 0C9.509 0 6.518 2.774 6.518 7.795v4.414H1.431V18h5.087v14h6.261V18z"/></symbol><symbol id="icon-twitter" viewBox="0 0 32 32"><path d="M28.711 9.482c.02.284.02.569.02.853 0 8.67-6.599 18.66-18.66 18.66A18.53 18.53 0 010 26.051c.528.061 1.036.081 1.584.081 3.066 0 5.888-1.035 8.142-2.802a6.57 6.57 0 01-6.132-4.548c.406.061.812.102 1.239.102.589 0 1.178-.081 1.726-.223A6.56 6.56 0 011.3 12.224v-.081a6.6 6.6 0 002.964.832A6.556 6.556 0 011.34 7.513c0-1.218.325-2.335.893-3.31a18.639 18.639 0 0013.523 6.863 7.437 7.437 0 01-.162-1.502 6.555 6.555 0 016.558-6.558c1.888 0 3.594.792 4.792 2.071a12.88 12.88 0 004.162-1.584 6.539 6.539 0 01-2.883 3.614A13.168 13.168 0 0032 6.092a14.103 14.103 0 01-3.289 3.391z"/></symbol></defs></svg>
